!! George Gerswhin, "I Can't Be Bothered Now" from
!! "Bumper Book of George Gerswhin,"
!! London: Chappell Music Ltd., 1987; pp.118-121
**kern
*M2/2
*MM[Moderato con spirito]
=1
4b
4g
4d
4e
=2
4e#
4f#
4een
4dd
=3
4b
4g
4d
4en
=4
4e#
2.f#
=5
4g
4a
4b
4dd
=6
4dd#
4ee
4a#
4b
=7
4g
[2.g
=8
2.g]
4r
=9
4b
4g
4d
4e
=10
4e#
4f#
4een
4dd
=11
4b
4g
4d
4en
=12
4e#
2f#
4f#
=13
4g
4a-
4g
4a-
!! page 119
=14
4b-
2b-
4b-
=15
4a#
4bn
4a#
4b
=16
4cc#
2.cc#
=17
4cc#
4dd
4cc#
4dd
=18
4ee
2.ee
=19
4r
4dd
4dd
4dd
=20
1dd
=21
4b
4b
4a
4b
=22
2a
8r
!! Refrain
4.d
=23
2d
8r
4.g
=24
2f#
8r
4.d
=25
2d
8r
4.b
=26
2a
8r
4.d
=27
2d
8r
4.dd
=28
2cc
8r
4.a
=29
4b
4b
4g
4b
=30
[2a
8a]
4.d
!! page 120
=31
2d
8r
4.g
=32
2f#
8r
4.d
=33
2d
8r
4.b
=34
2a
8r
4.d
=35
2d
8r
4.dd
=36
2cc
8r
4.a
=37
4b
4b
4g
4b
=38
4a
4a
4f#
4a
=39
[1g
=40
2g]
4r
4g
=41
4ffn
4ee
4dd
4cc
=42
[2b
8b]
4.g
=43
4ffn
4ee
4dd
4cc
=44
[2dd
8dd]
4.g
=45
4ffn
4ee
4dd
4cc
=46
4ee
4dd
4cc
4dd
!! page 121
=47
[1a
=48
2a]
8r
4.d
=49
2d
8r
4.g
=50
4f#
4f#
8r
4.d
=51
2d
8r
4.b
=52
4a
4a
8r
4.d
=53
2d
8r
4.dd
=54
2cc
8r
4.a
=55
4b
4b
4g
4b
=56
4a
4b
4cc
4dd
=57
[1ee
=58
4ee]
4g
4f#
4a
!! First ending.
=59
1g
=60
2r
8r
!! Refrain
4.d
=23
2d
8r
4.g
=24
2f#
8r
4.d
=25
2d
8r
4.b
=26
2a
8r
4.d
=27
2d
8r
4.dd
=28
2cc
8r
4.a
=29
4b
4b
4g
4b
=30
[2a
8a]
4.d
!! page 120
=31
2d
8r
4.g
=32
2f#
8r
4.d
=33
2d
8r
4.b
=34
2a
8r
4.d
=35
2d
8r
4.dd
=36
2cc
8r
4.a
=37
4b
4b
4g
4b
=38
4a
4a
4f#
4a
=39
[1g
=40
2g]
4r
4g
=41
4ffn
4ee
4dd
4cc
=42
[2b
8b]
4.g
=43
4ffn
4ee
4dd
4cc
=44
[2dd
8dd]
4.g
=45
4ffn
4ee
4dd
4cc
=46
4ee
4dd
4cc
4dd
!! page 121
=47
[1a
=48
2a]
8r
4.d
=49
2d
8r
4.g
=50
4f#
4f#
8r
4.d
=51
2d
8r
4.b
=52
4a
4a
8r
4.d
=53
2d
8r
4.dd
=54
2cc
8r
4.a
=55
4b
4b
4g
4b
=56
4a
4b
4cc
4dd
=57
[1ee
=58
4ee]
4g
4f#
4a
!! Second ending.
=59
[1g
=60
2g_
8g]
8r
4r
====
*-
